X:1
T:Title
%%score { ( 1 3 ) | ( 2 4 ) }
L:1/8
M:4/4
K:F
V:1 treble nm="Grand Piano"
V:3 treble 
V:2 bass 
V:4 bass 
V:1
 z4 z2[Q:1/4=100] C2 | F2 F2 [EG]2 [EG]2 | A6 F2 | G2 G2 A2 A2 | [EB]6 [CEG]2 | A2 A2 B2 B2 | %6
 c2 d2 c2 A2 | G2 G2 [CFA]2 [F=B]2 |[M:3/4] [Ec]6 |[M:1/4] [Ec]2 |[M:4/4] c4 z4 | d4 z4 | %12
 c2 d2 c2 A2 | [EG]6 z2 | [CFA]3 [B,FB] [Fc]2 [FA]2 | [FB]3 [Fc] [Fd]2 [Fd]2 | %16
 [Fc] [FA]3 [FA]2 [CG]2 |[M:3/4] [A,CF]6 |] %18
V:2
 z4 z2 [F,A,]2 | [F,A,C]2 [F,A,C]2 [C,C]2 [C,C]2 | [F,CF]6 [F,A,C]2 | %3
 [E,C]2 [E,C]2 [F,CF]2 [F,CF]2 | z2 B,2 G,2 C,2 | [F,CF]2 [F,CF]2 [G,CE]2 [G,CE]2 | %6
 [A,CF]2 [B,F]2 [A,CF]2[K:bass] [F,CF]2 | [G,CE]2 [G,CE]2 G,,2 [G,,G,]2 |[M:3/4] [C,G,]6 | %9
[M:1/4] [C,B,]2 |[M:4/4] [F,F]2 z2 z4 | B,4 z4 | [F,A,F]2 [F,B,F]2 [F,A,F]2 [F,CF]2 | %13
 [C,C]2 C,2 C,2 C,2 | F,3 F, [F,A,]2 [_E,C]2 | [D,B,]3 [C,A,] [B,,B,]2 [B,,B,]2 | %16
 [C,A,] [C,C]3 [C,C]2 [C,B,]2 |[M:3/4] [F,,F,]6 |] %18
V:3
 x8 | x8 | x8 | x8 | C2 z2 z4 | x8 | x8 | x8 |[M:3/4] x6 |[M:1/4] x2 |[M:4/4] z2 F2 A2 c2 | %11
 F2 F2 [DFB]2 [Fd]2 | x8 | z2 C2 C2 [CEG]2 | x8 | x8 | x8 |[M:3/4] x6 |] %18
V:4
 x8 | x8 | x8 | x8 | C,6 z2 | x8 | x6[K:bass] x2 | x8 |[M:3/4] x6 |[M:1/4] x2 | %10
[M:4/4] A,2- [F,A,]2 [F,CF]2 [F,A,F]2 | B,,2 B,,2 B,,2 [B,,B,]2 | x8 | x8 | x8 | x8 | x8 | %17
[M:3/4] x6 |] %18

